X:1
T:Title
%%score 1 { 2 | 3 }
L:1/8
Q:1/4=90
M:4/4
K:G
V:1 treble nm="Grand Piano, Soprano"
V:2 bass nm="Choir Pad, What Can I Do Without Jesus"
V:3 bass 
V:1
 D [DG]2 [DG] [DB]>[DA] [DB][DG]- | [DG] z .[DG]2 [FA][GB]- [GB]/[FA]/[GB] | %2
w: By~Tullius~Clinton~O�Kane * * * * * *||
 [Gd]>[Ge] [Gd][GB]- [GB]3- [GB]/ z/ | G[Ge]- [Ge]/[F^d]/[Ge] [Fc]>[GB] [Ac][B=d]- | %4
w: ||
 [Bd]2 [GB]2 [GB][FA]- [FA]/[GB]/[FA] | [FA][GB][E^c][Fd]- [Fd]3- [Fd]/ z/ | %6
w: ||
 [Dc][DB]- [DB]/[Ec]/[DB] [GB][Ac][Bd][Ge]- | [Ge] z .[Ge]2 [Gc][FA]- [FA]/[EG]/[FA] | %8
w: ||
 [Fd][Gd][Ac][GB]- [GB]3- [GB]/ z/ | G[Ge]- [Ge]/[F^d]/[Ge] [Dc]>[DB] [Dc][D=d]- | %10
w: ||
 [Dd]2 [GB]2 [GB]/[GB]/[FA] [EG][FA] | [Fd][Fc][DA][CG]- [CG]4- | [CG]2 z2 z4 |] %13
w: |||
V:2
 B, B,2 B, G,>F, G,B,- | B, z .B,2[K:treble] DD- D/D/D | B,>C B,D- D3- D/ z/ | DC- C/C/C A,>D DD- | %4
 D2 D2 DD- D/D/D | D[K:bass]A,A,A,- A,3- A,/ z/ | A,G,- G,/G,/G,[K:treble] D2 DC- | %7
 C z .C2 A,C- C/C/C | A,DDD- D3- D/ z/ | DC- C/C/C[K:bass] A,>G, A,B,- | %10
 B,2[K:treble] D2 D/D/D DD | B,A,CB,- B,4- | B,2 z2 z4 |] %13
V:3
 G, G,2 G, D,>D, D,G,,- | G,, z .G,,2 D,G,- G,/G,/G, | G,>G, G,G,- G,3- G,/ z/ | %3
 B,,C,- C,/C,/C, D,>D, D,G,- | G,2 G,2 G,D,- D,/D,/D, | [A,,A,]A,,A,,D,- D,3- D,/ z/ | %6
 .D,2 z2 G,2 G,C,- | C, z .C,2 C,D,- D,/D,/D, | D,E,F,G,- G,3- G,/ z/ | %9
 B,,C,- C,/C,/C, D,>D, D,G,- | G,2 G,2 G,/G,/D, D,D, | D,D,D,[G,,G,]- [G,,G,]4- | [G,,G,]2 z2 z4 |] %13

